src/assets/icons/scam.svg

<?xml version="1.0" encoding="UTF-8"?>
<svg width="32px" height="30px" viewBox="0 0 32 30" version="1.1" xmlns="http://www.w3.org/2000/svg" xmlns:xlink="http://www.w3.org/1999/xlink">
    <!-- Generator: Sketch 42 (36781) - http://www.bohemiancoding.com/sketch -->
    <title>report_scam</title>
    <desc>Created with Sketch.</desc>
    <defs></defs>
    <g id="Report" stroke="none" stroke-width="1" fill="none" fill-rule="evenodd">
        <g id="MVP-1.1---Report-User" transform="translate(-722.000000, -463.000000)" fill="#333333">
            <g id="Overlay-Report-User" transform="translate(97.000000, 186.000000)">
                <g id="Group" transform="translate(461.000000, 262.000000)">
                    <path d="M194.929575,19.8433873 C195.326835,20.0731582 195.591113,20.4819203 195.636843,20.9369733 C195.68594,21.4248507 195.472441,21.8972978 195.037307,22.1972063 L190.705045,24.8335398 C191.542489,26.6296244 192.012972,28.6313525 192.012972,30.7436176 C192.012972,38.4792377 185.742106,44.750384 178.006486,44.750384 C170.270866,44.750384 164,38.4792377 164,30.7436176 C164,23.008278 170.270866,16.7371317 178.006486,16.7371317 C180.806941,16.7371317 183.412975,17.5622308 185.60155,18.9778888 L190.300211,15.2311363 C190.68737,14.9623689 191.199375,14.9250557 191.635351,15.1346269 C192.041868,15.3296096 192.335044,15.7105972 192.420051,16.1541476 L192.903159,18.6726499 L194.929575,19.8433873 Z M189.90239,23.3516718 L193.669342,21.0595739 L191.960789,20.072036 C191.600562,19.864148 191.34947,19.5103738 191.271477,19.1018922 L190.856542,16.9382864 L187.004022,20.0119982 C188.137447,20.963345 189.116849,22.0903166 189.90239,23.3516718 Z M189.61679,34.8699549 C190.076892,33.5791419 190.329669,32.1906973 190.329669,30.7436176 C190.329669,27.8460915 189.321931,25.1808614 187.641994,23.0744879 L179.781249,24.8481284 C179.169929,24.9858787 178.540654,25.0548942 177.911379,25.0548942 C177.312684,25.0548942 176.71399,24.9923314 176.131286,24.8674864 L168.284568,23.1844637 C166.656533,25.273443 165.683303,27.8963101 165.683303,30.7436176 C165.683303,32.1603978 165.926541,33.5205068 166.368408,34.7883147 L176.817793,33.305044 C177.607824,33.1933849 178.407673,33.1959099 179.19602,33.3140216 L189.61679,34.8699549 Z M178.006486,43.0670807 C182.736568,43.0670807 186.85,40.3869814 188.914852,36.4668486 L178.947172,34.978528 C178.319861,34.8848241 177.683011,34.8831408 177.054578,34.9717948 L167.058843,36.3908194 C169.110509,40.3519126 173.246104,43.0670807 178.006486,43.0670807 Z M180.584717,37.521887 C180.97328,37.2671471 181.494823,37.3748785 181.750405,37.7631605 C182.005425,38.151723 181.897694,38.673547 181.509131,38.9291285 C180.42817,39.6389214 179.18982,39.9938179 177.951189,39.9938179 C176.712559,39.9938179 175.474209,39.6389214 174.393528,38.9291285 C174.004965,38.673547 173.896953,38.151723 174.151974,37.7631605 C174.407275,37.3748785 174.929379,37.2671471 175.317942,37.521887 C176.917361,38.5733905 178.985299,38.5733905 180.584717,37.521887 Z M186.312185,21.64873 C184.119963,19.645038 181.20364,18.4204349 178.006486,18.4204349 C174.759394,18.4204349 171.803513,19.6848762 169.600069,21.7446783 L176.484219,23.2214964 C177.442579,23.4271399 178.454525,23.4218095 179.410641,23.2057855 L186.312185,21.64873 Z M174.445766,29.4648121 C174.867995,29.658953 175.052597,30.1591747 174.858176,30.5811227 C174.716217,30.8894477 174.411539,31.0712445 174.093114,31.0712445 C173.975283,31.0712445 173.855488,31.0462755 173.741585,30.993532 L172.76106,30.5421262 L172.76106,30.860551 C172.76106,31.3254233 172.384281,31.7022026 171.919409,31.7022026 C171.454537,31.7022026 171.077757,31.3254233 171.077757,30.860551 L171.077757,29.766965 L169.437378,29.0117229 C169.01543,28.8173014 168.830547,28.3173603 169.025249,27.8951318 C169.21939,27.4726227 169.719331,27.2874593 170.14156,27.483003 L174.445766,29.4648121 Z M185.799563,27.8952159 C185.993984,28.3174445 185.809382,28.8173856 185.387153,29.0115265 L183.702447,29.7875294 L183.702447,30.8603546 C183.702447,31.3255074 183.325949,31.7020063 182.860796,31.7020063 C182.395924,31.7020063 182.019144,31.3255074 182.019144,30.8603546 L182.019144,30.56241 L181.082947,30.9936161 C180.969044,31.0460791 180.849248,31.0710481 180.731698,31.0710481 C180.413273,31.0710481 180.108595,30.8895319 179.966636,30.5812068 C179.772215,30.1589783 179.956817,29.6590372 180.379046,29.4648962 L184.683252,27.4828066 C185.10492,27.2875435 185.605141,27.4727068 185.799563,27.8952159 Z" id="report_scam"></path>
                </g>
            </g>
        </g>
    </g>
</svg>

<svg width="32" height="30" viewBox="0 0 32 30" xmlns="http://www.w3.org/2000/svg"><g id="Report" fill="none" fill-rule="evenodd"><g id="MVP-1.1---Report-User" transform="translate(-722 -463)" fill="#333"><g id="Overlay-Report-User" transform="translate(97 186)"><g id="Group" transform="translate(461 262)"><path d="M194.93 19.843c.397.23.661.639.707 1.094.049.488-.165.96-.6 1.26l-4.332 2.637a13.948 13.948 0 0 1 1.308 5.91c0 7.735-6.27 14.006-14.007 14.006-7.735 0-14.006-6.27-14.006-14.006 0-7.736 6.27-14.007 14.006-14.007 2.8 0 5.407.825 7.596 2.24l4.698-3.746c.387-.269.9-.306 1.335-.096.407.195.7.576.785 1.02l.483 2.518 2.027 1.17zm-5.028 3.509l3.767-2.292-1.708-.988a1.428 1.428 0 0 1-.69-.97l-.414-2.164-3.853 3.074a14.077 14.077 0 0 1 2.898 3.34zm-.285 11.518c.46-1.29.713-2.68.713-4.126a12.26 12.26 0 0 0-2.688-7.67l-7.86 1.774a8.52 8.52 0 0 1-3.65.02l-7.847-1.684a12.258 12.258 0 0 0-2.602 7.56c0 1.416.244 2.777.685 4.044l10.45-1.483c.79-.112 1.59-.11 2.378.009l10.42 1.556zm-11.61 8.197c4.73 0 8.843-2.68 10.908-6.6l-9.968-1.488a6.582 6.582 0 0 0-1.892-.007l-9.996 1.419c2.052 3.96 6.187 6.676 10.947 6.676zm2.578-5.545a.842.842 0 0 1 .924 1.407 6.475 6.475 0 0 1-7.115 0 .842.842 0 0 1 .924-1.407 4.791 4.791 0 0 0 5.267 0zm5.727-15.873a12.276 12.276 0 0 0-8.306-3.229 12.275 12.275 0 0 0-8.406 3.325l6.884 1.476c.959.206 1.97.2 2.927-.015l6.901-1.557zm-11.866 7.816a.841.841 0 1 1-.704 1.529l-.98-.452v.319a.842.842 0 1 1-1.684 0v-1.094l-1.64-.755a.842.842 0 0 1 .704-1.529l4.304 1.982zm11.354-1.57a.841.841 0 0 1-.413 1.117l-1.685.776v1.072a.841.841 0 1 1-1.683 0v-.298l-.936.432a.839.839 0 0 1-1.116-.413.841.841 0 0 1 .412-1.116l4.304-1.982a.84.84 0 0 1 1.117.412z" id="report_scam"/></g></g></g></g></svg>
